symbols/web/feed/materialsymbolssharp/feed_wght200gradN25fill1_20px.svg

<svg xmlns="http://www.w3.org/2000/svg" height="20" width="20"><path d="M3.458 16.542V3.458h9.48l3.604 3.604v9.48Zm2.854-3.25h7.376v-.854H6.312Zm0-5.75H10v-.854H6.312Zm0 2.875h7.376v-.855H6.312Zm6.146-2.875h3.25l-3.25-3.25Z"/></svg>

<svg xmlns="http://www.w3.org/2000/svg" height="20" width="20"><path d="M3.458 16.542V3.458H12.938L16.542 7.062V16.542ZM6.312 13.292H13.688V12.438H6.312ZM6.312 7.542H10V6.688H6.312ZM6.312 10.417H13.688V9.562H6.312ZM12.458 7.542H15.708L12.458 4.292Z"/></svg>
